X:120
T: LINCHEN GING EINMAL SPAZIEREN
N: E0712
O: Europa, Mitteleuropa, Deutschland, Brandenburg; Schlesien
R: Liebes - Lied, Leid, Klage
M: 6/8
L: 1/8
K: F
 | F2Ac2f | feddcc |
GBdcBG | F3z3 |
cgggec | cfffcA |
GBdcBG | F3z3

@@@ Tune index: 4433
